src/next/cmd/ar/sc_bulletsandnumberingdialog.svg

<svg height="16" viewBox="0 0 4.2333333 4.2333335" width="16" xmlns="http://www.w3.org/2000/svg" xmlns:xlink="http://www.w3.org/1999/xlink"><linearGradient id="a" gradientUnits="userSpaceOnUse" x1="102.30765" x2="106.01008" y1="39.141762" y2="209.45338"><stop offset="0" stop-color="#99999c"/><stop offset=".5" stop-color="#9c9ca1"/><stop offset="1" stop-color="#cdcdd1"/></linearGradient><linearGradient id="b" gradientUnits="userSpaceOnUse" x1="78.610847" x2="120.3435" y1="88.852417" y2="111.54715"><stop offset="0" stop-color="#fff"/><stop offset="1" stop-color="#ccc"/></linearGradient><linearGradient id="c" gradientUnits="userSpaceOnUse" x1="88.38102" x2="130.48599" y1="1008.9966" y2="1015.6953"><stop offset="0" stop-color="#7b7b7b"/><stop offset="1" stop-color="#797979" stop-opacity="0"/></linearGradient><clipPath id="d"><path d="m41.355614 933.74432h83.943996v117.52168h-83.943996z"/></clipPath><filter id="e" color-interpolation-filters="sRGB" height="1.073732" width="1.13754" x="-.06877" y="-.036866"><feGaussianBlur stdDeviation="1.0557314"/></filter><linearGradient id="f" gradientUnits="userSpaceOnUse" x1="98.40847" x2="115.25523" y1="30.758501" y2="77.140503"><stop offset="0" stop-color="#fff" stop-opacity=".683453"/><stop offset="1" stop-color="#fff" stop-opacity="0"/></linearGradient><linearGradient id="g" gradientTransform="matrix(.58291629 0 0 .66676377 62.177025 -566.68964)" gradientUnits="userSpaceOnUse" x1="63.011921" x2="63.011921" y1="945.89801" y2="1033.1569"><stop offset="0" stop-color="#545454" stop-opacity=".988"/><stop offset="1" stop-color="#ebebeb"/></linearGradient><linearGradient id="h" gradientTransform="matrix(.48045402 0 0 .66178602 128.73476 -578.51587)" gradientUnits="userSpaceOnUse" x1="-60.535713" x2="-60.357143" y1="979.50507" y2="1009.505"><stop offset="0" stop-color="#979797"/><stop offset=".148461" stop-color="#f6f6f6"/><stop offset=".28399727" stop-color="#e2e2e2"/><stop offset=".41198727" stop-color="#dedede"/><stop offset=".41198727" stop-color="#f6f6f6"/><stop offset="1" stop-color="#6b6b6b"/></linearGradient><linearGradient id="i" gradientTransform="matrix(.480454 0 0 .58309338 128.76683 499.76645)" gradientUnits="userSpaceOnUse" x1="-61.078979" x2="-60.6413" y1="-1056.658" y2="-1010.9131"><stop offset="0" stop-color="#777"/><stop offset=".18176934" stop-color="#a8a8a8"/><stop offset=".22864534" stop-color="#cdcdcd"/><stop offset=".34561315" stop-color="#f7f7f7"/><stop offset="1" stop-color="#fff"/></linearGradient><linearGradient id="j"><stop offset="0" stop-color="#06f"/><stop offset="1" stop-color="#80b3ff"/></linearGradient><linearGradient id="k" gradientUnits="userSpaceOnUse" x1="7.093015" x2="7.093015" xlink:href="#j" y1="-274.81851" y2="-268.05536"/><linearGradient id="l" gradientTransform="matrix(2.9758551 0 0 2.9758549 -2309.4946 -578.87404)" gradientUnits="userSpaceOnUse" x1="778.88196" x2="778.88196" xlink:href="#j" y1="289.57986" y2="284.53162"/><path d="m-31.856726 269.48331h17.04006v2.1167h-17.04006z" fill="#404040" fill-opacity=".839216" transform="matrix(.125 0 0 .125 4.246674 -32.891664)"/><path d="m-27.516666 273.71664h12.699999v2.11669h-12.699999z" fill="#404040" fill-opacity=".839216" transform="matrix(.125 0 0 .125 4.246674 -32.891664)"/><g font-family="Bitstream Vera Sans" font-size="26.164047" transform="matrix(.125 0 0 .125 2.534438 -32.891664)"><text stroke="url(#l)" stroke-linejoin="round" stroke-width="4.360674" transform="scale(1.0236449 .97690126)" x="2.854235" y="284.12396"><tspan style="font-weight:bold;font-size:12.976333;font-family:Liberation Sans;stroke-width:4.360674;stroke-linejoin:round;stroke:url(#l)" x="2.854235" y="284.12396">1</tspan></text><text fill="#bfd9ff" stroke-width="2.180337" x="3.161938" y="277.56085"><tspan fill="#bfd9ff" font-family="Liberation Sans" font-size="12.676597" font-weight="bold" stroke-width="2.180337" x="3.161938" y="277.56085">1</tspan></text><g transform="translate(.2324 14.660248)"><circle cx="6.63171" cy="-272.99435" fill="none" r="1.470957" stroke="url(#k)" stroke-linecap="round" stroke-linejoin="round" stroke-width="5.88383" transform="scale(1 -1)"/><circle cx="6.63171" cy="272.99435" fill="#bfd9ff" r="1.470957"/></g></g><g fill="#404040" fill-opacity=".839216" transform="matrix(.125 0 0 .125 4.246674 -32.891664)"><path d="m-31.856724 284.29999h17.04006v2.1167h-17.04006z"/><path d="m-27.516665 288.53333h12.699999v2.11669h-12.699999z"/></g><g transform="matrix(.03573107 0 0 .03573107 -2.464937 -.340244)"><path d="m68.985809 46.546616h59.012391v81.453444h-59.012391z" fill="url(#a)"/><path d="m76.390663 53.951469h44.429127v66.643681h-44.429127z" fill="url(#b)"/><path clip-path="url(#d)" d="m92.81509 1029.6319c1.071428 1.4286 10.71429 15.3572 11.78571 13.5715 1.07143-1.7858 26.42857-25.3572 25-26.7858-1.42857-1.4285-33.928567-41.78567-33.928567-41.78567z" fill="url(#c)" fill-rule="evenodd" filter="url(#e)" opacity=".68" transform="matrix(.69309305 0 0 .69309305 41.153912 -600.6251)"/><path d="m72 48v48c14.790777-17.220934 34.04067-23.231931 48-25.4375v-22.5625z" fill="url(#f)" fill-rule="evenodd" transform="matrix(.92560668 0 0 .92560668 9.746984 9.522348)"/><path d="m83.795517 65.058746h29.619413v48.131544h-29.619413z" fill="url(#g)"/><path d="m87.497948 68.761177h22.214562v40.726693h-22.214562z" fill="#535353"/><path d="m91.200371 72.4636h14.809709v14.809709h-14.809709z" fill="url(#h)"/><path d="m91.200371-116.89272h14.809719v29.619408h-14.809719z" fill="url(#i)" transform="scale(1 -1)"/></g></svg>

<?xml version="1.0" encoding="UTF-8" standalone="no"?>
<svg
   xmlns:dc="http://purl.org/dc/elements/1.1/"
   xmlns:cc="http://creativecommons.org/ns#"
   xmlns:rdf="http://www.w3.org/1999/02/22-rdf-syntax-ns#"
   xmlns:svg="http://www.w3.org/2000/svg"
   xmlns="http://www.w3.org/2000/svg"
   xmlns:xlink="http://www.w3.org/1999/xlink"
   xmlns:sodipodi="http://sodipodi.sourceforge.net/DTD/sodipodi-0.dtd"
   xmlns:inkscape="http://www.inkscape.org/namespaces/inkscape"
   height="16"
   viewBox="0 0 4.2333333 4.2333335"
   width="16"
   version="1.1"
   id="svg112"
   sodipodi:docname="sc_bulletsandnumberingdialog.svg"
   inkscape:version="0.92.4 (unknown)"
   inkscape:export-filename="/home/rizmut/Dokumen/Rizmut/Github/libreoffice-style-karasa-jaga/build/next/cmd/ar/sc_bulletsandnumberingdialog.png"
   inkscape:export-xdpi="96"
   inkscape:export-ydpi="96">
  <metadata
     id="metadata118">
    <rdf:RDF>
      <cc:Work
         rdf:about="">
        <dc:format>image/svg+xml</dc:format>
        <dc:type
           rdf:resource="http://purl.org/dc/dcmitype/StillImage" />
        <dc:title></dc:title>
      </cc:Work>
    </rdf:RDF>
  </metadata>
  <defs
     id="defs116" />
  <sodipodi:namedview
     pagecolor="#ffffff"
     bordercolor="#666666"
     borderopacity="1"
     objecttolerance="10"
     gridtolerance="10"
     guidetolerance="10"
     inkscape:pageopacity="0"
     inkscape:pageshadow="2"
     inkscape:window-width="1366"
     inkscape:window-height="706"
     id="namedview114"
     showgrid="true"
     inkscape:zoom="14.75"
     inkscape:cx="4.6652015"
     inkscape:cy="6.9783644"
     inkscape:window-x="0"
     inkscape:window-y="0"
     inkscape:window-maximized="1"
     inkscape:current-layer="g92">
    <inkscape:grid
       type="xygrid"
       id="grid925" />
  </sodipodi:namedview>
  <linearGradient
     id="a"
     gradientUnits="userSpaceOnUse"
     x1="102.30765"
     x2="106.01008"
     y1="39.141762"
     y2="209.45338">
    <stop
       offset="0"
       stop-color="#99999c"
       id="stop2" />
    <stop
       offset=".5"
       stop-color="#9c9ca1"
       id="stop4" />
    <stop
       offset="1"
       stop-color="#cdcdd1"
       id="stop6" />
  </linearGradient>
  <linearGradient
     id="b"
     gradientUnits="userSpaceOnUse"
     x1="78.610847"
     x2="120.3435"
     y1="88.852417"
     y2="111.54715">
    <stop
       offset="0"
       stop-color="#fff"
       id="stop9" />
    <stop
       offset="1"
       stop-color="#ccc"
       id="stop11" />
  </linearGradient>
  <linearGradient
     id="c"
     gradientUnits="userSpaceOnUse"
     x1="88.38102"
     x2="130.48599"
     y1="1008.9966"
     y2="1015.6953">
    <stop
       offset="0"
       stop-color="#7b7b7b"
       id="stop14" />
    <stop
       offset="1"
       stop-color="#797979"
       stop-opacity="0"
       id="stop16" />
  </linearGradient>
  <clipPath
     id="d">
    <path
       d="m41.355614 933.74432h83.943996v117.52168h-83.943996z"
       id="path19" />
  </clipPath>
  <filter
     id="e"
     color-interpolation-filters="sRGB"
     height="1.073732"
     width="1.13754"
     x="-.06877"
     y="-.036866">
    <feGaussianBlur
       stdDeviation="1.0557314"
       id="feGaussianBlur22" />
  </filter>
  <linearGradient
     id="f"
     gradientUnits="userSpaceOnUse"
     x1="98.40847"
     x2="115.25523"
     y1="30.758501"
     y2="77.140503">
    <stop
       offset="0"
       stop-color="#fff"
       stop-opacity=".683453"
       id="stop25" />
    <stop
       offset="1"
       stop-color="#fff"
       stop-opacity="0"
       id="stop27" />
  </linearGradient>
  <linearGradient
     id="g"
     gradientTransform="matrix(0.58291629,0,0,0.66676377,62.177025,-566.68964)"
     gradientUnits="userSpaceOnUse"
     x1="63.011921"
     x2="63.011921"
     y1="945.89801"
     y2="1033.1569">
    <stop
       offset="0"
       stop-color="#545454"
       stop-opacity=".988"
       id="stop30" />
    <stop
       offset="1"
       stop-color="#ebebeb"
       id="stop32" />
  </linearGradient>
  <linearGradient
     id="h"
     gradientTransform="matrix(0.48045402,0,0,0.66178602,128.73476,-578.51587)"
     gradientUnits="userSpaceOnUse"
     x1="-60.535713"
     x2="-60.357143"
     y1="979.50507"
     y2="1009.505">
    <stop
       offset="0"
       stop-color="#979797"
       id="stop35" />
    <stop
       offset=".148461"
       stop-color="#f6f6f6"
       id="stop37" />
    <stop
       offset=".28399727"
       stop-color="#e2e2e2"
       id="stop39" />
    <stop
       offset=".41198727"
       stop-color="#dedede"
       id="stop41" />
    <stop
       offset=".41198727"
       stop-color="#f6f6f6"
       id="stop43" />
    <stop
       offset="1"
       stop-color="#6b6b6b"
       id="stop45" />
  </linearGradient>
  <linearGradient
     id="i"
     gradientTransform="matrix(0.480454,0,0,0.58309338,128.76683,499.76645)"
     gradientUnits="userSpaceOnUse"
     x1="-61.078979"
     x2="-60.6413"
     y1="-1056.658"
     y2="-1010.9131">
    <stop
       offset="0"
       stop-color="#777"
       id="stop48" />
    <stop
       offset=".18176934"
       stop-color="#a8a8a8"
       id="stop50" />
    <stop
       offset=".22864534"
       stop-color="#cdcdcd"
       id="stop52" />
    <stop
       offset=".34561315"
       stop-color="#f7f7f7"
       id="stop54" />
    <stop
       offset="1"
       stop-color="#fff"
       id="stop56" />
  </linearGradient>
  <linearGradient
     id="j">
    <stop
       offset="0"
       stop-color="#06f"
       id="stop59" />
    <stop
       offset="1"
       stop-color="#80b3ff"
       id="stop61" />
  </linearGradient>
  <linearGradient
     id="k"
     gradientUnits="userSpaceOnUse"
     x1="7.093015"
     x2="7.093015"
     xlink:href="#j"
     y1="-274.81851"
     y2="-268.05536" />
  <linearGradient
     id="l"
     gradientTransform="matrix(2.9758551,0,0,2.9758549,-2309.4946,-578.87404)"
     gradientUnits="userSpaceOnUse"
     x1="778.88196"
     x2="778.88196"
     xlink:href="#j"
     y1="289.57986"
     y2="284.53162" />
  <g
     transform="matrix(-0.125,0,0,0.125,4.2466741,-32.891664)"
     id="g92">
    <path
       d="m -31.856726,269.48331 h 17.04006 v 2.1167 h -17.04006 z"
       transform="scale(-1,1)"
       id="path66"
       inkscape:connector-curvature="0"
       style="fill:#404040;fill-opacity:0.83921599" />
    <path
       d="m -27.516666,273.71664 h 12.699999 v 2.11669 h -12.699999 z"
       transform="scale(-1,1)"
       id="path68"
       inkscape:connector-curvature="0"
       style="fill:#404040;fill-opacity:0.83921599" />
    <g
       font-size="26.164047"
       id="g84"
       style="font-size:26.16404724px;font-family:'Bitstream Vera Sans'"
       transform="matrix(-1,0,0,1,13.697891,0)">
      <text
         transform="scale(1.0236449,0.97690126)"
         x="2.8542349"
         y="284.12396"
         id="text72"
         style="stroke:url(#l);stroke-width:4.3606739;stroke-linejoin:round">
        <tspan
           style="font-weight:bold;font-size:12.97633266px;font-family:'Liberation Sans';stroke:url(#l);stroke-width:4.3606739;stroke-linejoin:round"
           x="2.8542349"
           y="284.12396"
           id="tspan70">1</tspan>
      </text>
      <text
         x="3.161938"
         y="277.56085"
         id="text76"
         style="fill:#bfd9ff;stroke-width:2.18033695">
        <tspan
           font-size="12.676597"
           font-weight="bold"
           x="3.161938"
           y="277.56085"
           id="tspan74"
           style="font-weight:bold;font-size:12.67659664px;font-family:'Liberation Sans';fill:#bfd9ff;stroke-width:2.18033695">1</tspan>
      </text>
      <g
         transform="translate(0.2324,14.660248)"
         id="g82">
        <circle
           cx="6.6317101"
           cy="-272.99435"
           r="1.470957"
           transform="scale(1,-1)"
           id="circle78"
           style="fill:none;stroke:url(#k);stroke-width:5.88383007;stroke-linecap:round;stroke-linejoin:round" />
        <circle
           cx="6.6317101"
           cy="272.99435"
           r="1.470957"
           id="circle80"
           style="fill:#bfd9ff" />
      </g>
    </g>
    <g
       transform="scale(-1,1)"
       id="g90"
       style="fill:#404040;fill-opacity:0.83921599">
      <path
         d="m -31.856724,284.29999 h 17.04006 v 2.1167 h -17.04006 z"
         id="path86"
         inkscape:connector-curvature="0" />
      <path
         d="m -27.516665,288.53333 h 12.699999 v 2.11669 h -12.699999 z"
         id="path88"
         inkscape:connector-curvature="0" />
    </g>
  </g>
  <g
     transform="matrix(0.03573107,0,0,0.03573107,-2.4649368,-0.340244)"
     id="g110">
    <path
       d="M 68.985809,46.546616 H 127.9982 V 128.00006 H 68.985809 Z"
       id="path94"
       style="fill:url(#a)"
       inkscape:connector-curvature="0" />
    <path
       d="M 76.390663,53.951469 H 120.81979 V 120.59515 H 76.390663 Z"
       id="path96"
       style="fill:url(#b)"
       inkscape:connector-curvature="0" />
    <path
       clip-path="url(#d)"
       d="m 92.81509,1029.6319 c 1.071428,1.4286 10.71429,15.3572 11.78571,13.5715 1.07143,-1.7858 26.42857,-25.3572 25,-26.7858 -1.42857,-1.4285 -33.928567,-41.78567 -33.928567,-41.78567 z"
       transform="matrix(0.69309305,0,0,0.69309305,41.153912,-600.6251)"
       id="path98"
       style="opacity:0.68000004;fill:url(#c);fill-rule:evenodd;filter:url(#e)"
       inkscape:connector-curvature="0" />
    <path
       d="M 72,48 V 96 C 86.790777,78.779066 106.04067,72.768069 120,70.5625 V 48 Z"
       transform="matrix(0.92560668,0,0,0.92560668,9.746984,9.522348)"
       id="path100"
       style="fill:url(#f);fill-rule:evenodd"
       inkscape:connector-curvature="0" />
    <path
       d="M 83.795517,65.058746 H 113.41493 V 113.19029 H 83.795517 Z"
       id="path102"
       style="fill:url(#g)"
       inkscape:connector-curvature="0" />
    <path
       d="M 87.497948,68.761177 H 109.71251 V 109.48787 H 87.497948 Z"
       id="path104"
       inkscape:connector-curvature="0"
       style="fill:#535353" />
    <path
       d="M 91.200371,72.4636 H 106.01008 V 87.273309 H 91.200371 Z"
       id="path106"
       style="fill:url(#h)"
       inkscape:connector-curvature="0" />
    <path
       d="m 91.200371,-116.89272 h 14.809719 v 29.619408 H 91.200371 Z"
       transform="scale(1,-1)"
       id="path108"
       style="fill:url(#i)"
       inkscape:connector-curvature="0" />
  </g>
</svg>
